src/24/actions/object-to-path.svg

<svg xmlns="http://www.w3.org/2000/svg" viewBox="0 0 24 24">
  <defs id="defs3051">
    <style type="text/css" id="current-color-scheme">
      .ColorScheme-Text {
        color:#5d656b;
      }
      .ColorScheme-Highlight {
        color:#3daee9;
      }
      </style>
  </defs>
 <path 
     style="fill:currentColor;fill-opacity:1;stroke:none" 
     d="M 16 5.5 A 10.5 10.5 0 0 0 5.5 16 L 6.5 16 A 9.5 9.5 0 0 1 16 6.5 L 16 5.5 z M 17.5 15 A 2.4999914 2.4999914 0 0 0 15 17.5 A 2.4999914 2.4999914 0 0 0 15.416016 18.876953 L 16.148438 18.144531 A 1.5 1.5 0 0 1 16 17.5 A 1.5 1.5 0 0 1 17.5 16 A 1.5 1.5 0 0 1 18.144531 16.148438 L 18.876953 15.416016 A 2.4999914 2.4999914 0 0 0 17.5 15 z M 19.583984 16.123047 L 18.851562 16.855469 A 1.5 1.5 0 0 1 19 17.5 A 1.5 1.5 0 0 1 17.5 19 A 1.5 1.5 0 0 1 16.855469 18.851562 L 16.123047 19.583984 A 2.4999914 2.4999914 0 0 0 17.5 20 A 2.4999914 2.4999914 0 0 0 20 17.5 A 2.4999914 2.4999914 0 0 0 19.583984 16.123047 z "
     class="ColorScheme-Text"
     />
 <path 
     style="fill:currentColor;fill-opacity:1;stroke:none" 
     d="M 16 4 L 16 8 L 20 8 L 20 4 L 16 4 z M 17 5 L 19 5 L 19 7 L 17 7 L 17 5 z M 4 16 L 4 20 L 8 20 L 8 16 L 4 16 z M 5 17 L 7 17 L 7 19 L 5 19 L 5 17 z "
     class="ColorScheme-Highlight"
     />
</svg>

<svg xmlns="http://www.w3.org/2000/svg" viewBox="0 0 24 24"><path d="M16 5.5A10.5 10.5 0 0 0 5.5 16h1A9.5 9.5 0 0 1 16 6.5v-1zm1.5 9.5a2.5 2.5 0 0 0-2.5 2.5 2.5 2.5 0 0 0 .416 1.377l.732-.732A1.5 1.5 0 0 1 16 17.5a1.5 1.5 0 0 1 1.5-1.5 1.5 1.5 0 0 1 .645.148l.732-.732A2.5 2.5 0 0 0 17.5 15zm2.084 1.123l-.732.732A1.5 1.5 0 0 1 19 17.5a1.5 1.5 0 0 1-1.5 1.5 1.5 1.5 0 0 1-.645-.148l-.732.732A2.5 2.5 0 0 0 17.5 20a2.5 2.5 0 0 0 2.5-2.5 2.5 2.5 0 0 0-.416-1.377z" fill="currentColor" color="#5d656b"/><path d="M16 4v4h4V4h-4zm1 1h2v2h-2V5zM4 16v4h4v-4H4zm1 1h2v2H5v-2z" fill="currentColor" color="#3daee9"/></svg>
